public/assets/images/icons/icon-coin1.svg

<svg width="51" height="52" viewBox="0 0 51 52" fill="none" xmlns="http://www.w3.org/2000/svg">
<path d="M39.8672 32.2544C43.3776 23.6308 39.6585 13.9677 31.5604 10.6713C23.4624 7.37491 14.0519 11.6935 10.5416 20.3172C7.03124 28.9408 10.7503 38.6039 18.8484 41.9003C26.9464 45.1967 36.3569 40.8781 39.8672 32.2544Z" fill="#E9B522"/>
<path d="M12.1628 41.483C4.45875 34.3197 4.04332 21.6734 11.2367 13.2925C18.43 4.91152 30.5498 3.92085 38.2539 11.0841C45.9579 18.2474 46.3734 30.8936 39.1801 39.2746C31.9868 47.6555 19.8668 48.6463 12.1628 41.483ZM36.1154 13.5757C29.6743 7.58678 19.5412 8.41505 13.5271 15.4221C7.51296 22.4292 7.86024 33.0024 14.3014 38.9914C20.7425 44.9804 30.8757 44.1521 36.8898 37.145C42.9038 30.1378 42.5564 19.5647 36.1154 13.5757Z" fill="#F7DE61"/>
<path d="M12.0886 14.0847C19.1489 5.85879 30.9545 4.75317 38.6732 11.488C38.5357 11.3517 38.3964 11.2167 38.2539 11.0841C30.5499 3.92088 18.43 4.91152 11.2367 13.2925C4.04332 21.6734 4.45875 34.3197 12.1628 41.483C12.3053 41.6156 12.4499 41.7445 12.5954 41.8714C5.29877 34.6449 5.02847 22.3106 12.0886 14.0847Z" fill="#FFF2BD"/>
<path d="M36.1165 13.5758C35.9917 13.4598 35.8649 13.3472 35.7374 13.2363C41.8219 19.2804 42.0425 29.5802 36.145 36.4515C30.2474 43.3229 20.3894 44.2517 13.9357 38.6377C14.056 38.7571 14.1777 38.8755 14.3025 38.9916C20.7436 44.9806 30.8768 44.1523 36.8909 37.1452C42.9049 30.1379 42.5576 19.5648 36.1165 13.5758Z" fill="#CE9811"/>
<path d="M27.0857 35.1891C26.0086 35.659 24.7872 35.7158 23.4218 35.3586L22.4875 37.7664L20.4146 36.8657L21.3321 34.5014C20.4524 34.0345 19.6817 33.4804 19.0208 32.838C18.3592 32.1958 17.8385 31.4878 17.458 30.7143L19.1434 29.0641C19.9405 30.5596 21.0035 31.6552 22.3328 32.3509L24.0835 27.8396C23.271 27.1995 22.6106 26.5955 22.1026 26.0286C21.5942 25.4615 21.2438 24.7932 21.0512 24.0255C20.8585 23.2574 20.9445 22.4035 21.3093 21.4636C21.6123 20.6827 22.0714 20.0501 22.687 19.5655C23.3024 19.0812 24.0213 18.7684 24.8442 18.6274C25.6666 18.4867 26.5273 18.5436 27.4258 18.7987L28.3601 16.3912L30.4329 17.2919L29.5071 19.6776C30.2534 20.1205 30.9135 20.6439 31.4867 21.2476C32.0598 21.8517 32.4934 22.488 32.7884 23.1566L31.103 24.8067C30.4505 23.5095 29.5819 22.5238 28.4981 21.8497L26.6717 26.5562C27.4836 27.1969 28.1334 27.787 28.6202 28.3282C29.107 28.869 29.4441 29.5098 29.6318 30.2504C29.8193 30.9909 29.7365 31.8166 29.383 32.7275C28.9282 33.8989 28.1623 34.7194 27.0857 35.1891ZM24.0018 23.8882C24.2061 24.3406 24.5644 24.8044 25.0765 25.2805L26.7009 21.0944C26.0677 20.9716 25.512 21.026 25.0346 21.2574C24.5563 21.4894 24.2084 21.8872 23.9896 22.4511C23.7931 22.9573 23.7973 23.4362 24.0018 23.8882ZM25.7458 32.8584C26.181 32.6336 26.5086 32.2392 26.7275 31.6753C26.9013 31.2273 26.8923 30.8009 26.7011 30.3966C26.5095 29.9926 26.1659 29.5727 25.67 29.1371L24.1633 33.0196C24.7828 33.1366 25.3102 33.083 25.7458 32.8584Z" fill="#CE9811"/>
<path d="M23.8104 23.2177C24.0148 23.6701 24.373 24.1339 24.8851 24.6099L26.5095 20.4239C25.8762 20.301 25.3207 20.3555 24.8432 20.587C24.3649 20.8189 24.017 21.2166 23.7982 21.7805C23.6017 22.2869 23.6059 22.7657 23.8104 23.2177ZM25.5544 32.1879C25.9897 31.9631 26.3172 31.5687 26.5361 31.0048C26.7099 30.5568 26.7009 30.1304 26.5098 29.7261C26.3181 29.3221 25.9744 28.9022 25.4786 28.4666L23.9719 32.3491C24.5914 32.466 25.1188 32.4125 25.5544 32.1879ZM26.8943 34.5186C25.8172 34.9885 24.5959 35.0453 23.2305 34.6881L22.2961 37.0958L20.2233 36.1951L21.1408 33.8308C20.2611 33.3639 19.4904 32.8097 18.8295 32.1674C18.1679 31.5252 17.6471 30.8172 17.2667 30.0437L18.9521 28.3935C19.7491 29.889 20.8122 30.9846 22.1415 31.6803L23.8922 27.169C23.0797 26.5289 22.4193 25.9249 21.9112 25.358C21.4029 24.7909 21.0525 24.1227 20.8598 23.355C20.6671 22.5869 20.7532 21.7329 21.1179 20.7931C21.421 20.0122 21.8799 19.3795 22.4956 18.895C23.1111 18.4107 23.8299 18.0979 24.6528 17.9569C25.4753 17.8162 26.336 17.8731 27.2345 18.1282L28.1687 15.7208L30.2415 16.6215L29.3157 19.0072C30.062 19.4501 30.7221 19.9735 31.2953 20.5773C31.8683 21.1814 32.3019 21.8177 32.5969 22.4863L30.9115 24.1364C30.259 22.8392 29.3905 21.8535 28.3066 21.1794L26.4802 25.8859C27.2922 26.5266 27.942 27.1167 28.4287 27.6579C28.9155 28.1987 29.2526 28.8395 29.4403 29.5801C29.6278 30.3206 29.5451 31.1463 29.1916 32.0572C28.7369 33.2284 27.9709 34.0489 26.8943 34.5186Z" fill="#F7DE61"/>
</svg>

<svg xmlns="http://www.w3.org/2000/svg" width="51" height="52" fill="none"><path fill="#E9B522" d="M39.867 32.254c3.51-8.623-.209-18.286-8.307-21.583s-17.508 1.023-21.018 9.646.208 18.287 8.306 21.583c8.098 3.297 17.509-1.022 21.02-9.646"/><path fill="#F7DE61" d="M12.163 41.483c-7.704-7.163-8.12-19.81-.926-28.19S30.55 3.92 38.254 11.084s8.12 19.81.926 28.19c-7.193 8.382-19.313 9.372-27.017 2.209m23.952-27.907c-6.44-5.99-16.574-5.16-22.588 1.846s-5.667 17.58.774 23.57c6.442 5.988 16.575 5.16 22.589-1.847s5.666-17.58-.775-23.57"/><path fill="#FFF2BD" d="M12.089 14.085c7.06-8.226 18.865-9.332 26.584-2.597a18 18 0 0 0-.42-.404C30.55 3.921 18.43 4.912 11.238 13.293c-7.194 8.38-6.778 21.027.926 28.19q.214.2.432.388c-7.296-7.226-7.567-19.56-.506-27.786"/><path fill="#CE9811" d="M36.117 13.576a15 15 0 0 0-.38-.34c6.085 6.044 6.305 16.344.408 23.216-5.898 6.87-15.756 7.8-22.21 2.186q.181.18.367.354c6.442 5.989 16.575 5.16 22.589-1.847s5.667-17.58-.774-23.57"/><path fill="#CE9811" d="M27.086 35.19q-1.616.704-3.664.169l-.934 2.407-2.073-.9.917-2.365a10 10 0 0 1-2.311-1.663 7.7 7.7 0 0 1-1.563-2.124l1.685-1.65q1.195 2.243 3.19 3.287l1.75-4.511q-1.218-.96-1.98-1.811a4.64 4.64 0 0 1-1.052-2.003q-.288-1.153.258-2.562.454-1.172 1.378-1.898a4.7 4.7 0 0 1 2.157-.939q1.234-.21 2.582.172l.934-2.408 2.073.9-.926 2.387a9.2 9.2 0 0 1 1.98 1.57q.859.906 1.301 1.909l-1.685 1.65q-.978-1.946-2.605-2.957l-1.826 4.706q1.218.96 1.948 1.772t1.012 1.922q.28 1.111-.249 2.477-.682 1.758-2.297 2.462m-3.084-11.302q.306.679 1.075 1.392l1.624-4.186q-.95-.183-1.666.163-.718.348-1.045 1.194-.295.759.012 1.437m1.744 8.97q.653-.337.982-1.183.26-.672-.027-1.278t-1.031-1.26l-1.507 3.883q.93.175 1.583-.162"/><path fill="#F7DE61" d="M23.81 23.218q.307.678 1.075 1.392l1.624-4.186q-.95-.185-1.666.163-.717.348-1.045 1.194-.294.759.012 1.437m1.744 8.97q.654-.338.982-1.183.26-.673-.026-1.279-.288-.606-1.031-1.26l-1.507 3.883q.93.176 1.582-.161m1.34 2.33q-1.616.705-3.663.17l-.935 2.408-2.073-.9.918-2.365a10 10 0 0 1-2.311-1.664 7.7 7.7 0 0 1-1.563-2.123l1.685-1.65q1.195 2.242 3.19 3.286l1.75-4.511q-1.219-.96-1.98-1.811a4.65 4.65 0 0 1-1.052-2.003q-.29-1.152.258-2.562.454-1.17 1.378-1.898a4.7 4.7 0 0 1 2.157-.938q1.233-.21 2.582.171l.934-2.407 2.072.9-.925 2.386a9.2 9.2 0 0 1 1.98 1.57q.858.905 1.3 1.91l-1.684 1.65q-.98-1.946-2.605-2.958l-1.827 4.707q1.218.96 1.949 1.772.73.81 1.011 1.922.282 1.11-.248 2.477-.683 1.757-2.298 2.462"/></svg>
